svgs/CosmosDBcolor.svg

<?xml version="1.0" encoding="utf-8"?>
<!-- Generator: Adobe Illustrator 21.1.0, SVG Export Plug-In . SVG Version: 6.00 Build 0)  -->
<svg version="1.1" id="Layer_1" xmlns="http://www.w3.org/2000/svg" xmlns:xlink="http://www.w3.org/1999/xlink" x="0px" y="0px"
	 width="24px" height="24px" viewBox="0 0 24 24" enable-background="new 0 0 24 24" xml:space="preserve">
<path fill="#B8D432" d="M8.147,19.01c1.73-1.219,3.716-2.861,5.859-5.004c2.201-2.201,3.819-4.167,5.008-5.853
	C17.654,5.678,15.024,4,12,4c-4.418,0-8,3.582-8,8C4,15.021,5.675,17.649,8.147,19.01z"/>
<path fill="#B8D432" d="M16.127,16.127c-1.43,1.429-2.888,2.725-4.318,3.863C11.873,19.992,11.936,20,12,20c4.418,0,8-3.582,8-8
	c0-0.065-0.008-0.127-0.01-0.191C18.82,13.276,17.513,14.741,16.127,16.127z"/>
<path fill="#0078D7" d="M23.417,0.583c-0.342-0.342-0.839-0.504-1.461-0.504c-1.703,0-4.348,1.225-7.312,3.328
	c0.389,0.121,0.768,0.262,1.133,0.433c2.682-1.821,4.904-2.761,6.18-2.761c0.247,0,0.579,0.037,0.754,0.211
	c0.947,0.947-0.966,6.391-7.997,13.422c-5.389,5.389-10.452,8.208-12.668,8.208c-0.248,0-0.579-0.037-0.754-0.211
	c-0.626-0.626,0.011-3.228,2.542-6.949c-0.167-0.36-0.306-0.734-0.425-1.118c-2.872,4.047-4.1,7.497-2.824,8.774
	c0.342,0.342,0.839,0.504,1.461,0.504c2.819,0,8.21-3.337,13.375-8.501C21.725,9.114,25.305,2.472,23.417,0.583z"/>
<path fill="#0078D7" d="M4,0c0,2.209-1.791,4-4,4c2.209,0,4,1.791,4,4c0-2.209,1.791-4,4-4C5.791,4,4,2.209,4,0L4,0z"/>
<path fill="#0078D7" d="M21,18c0,1.657-1.343,3-3,3c1.657,0,3,1.343,3,3c0-1.657,1.343-3,3-3C22.343,21,21,19.657,21,18L21,18z"/>
<path fill="#59B4D9" d="M8.639,13.194H8.312c0.041-0.163,0.061-0.327,0.061-0.51c0-1.205-0.98-2.184-2.184-2.184H4.146
	C4.053,10.986,4,11.487,4,12c0,2.164,0.863,4.123,2.258,5.563h2.381c1.205,0,2.184-0.98,2.184-2.184
	C10.823,14.174,9.843,13.194,8.639,13.194z"/>
<path fill="#59B4D9" d="M14.001,14.011c0.002-0.002,0.003-0.003,0.005-0.005c0.296-0.296,0.572-0.584,0.847-0.871
	C14.48,13.323,14.178,13.631,14.001,14.011z"/>
<path fill="#59B4D9" d="M16.127,16.127c-0.936,0.936-1.885,1.815-2.831,2.632c0.336,0.333,0.797,0.54,1.304,0.54h0.665
	c2.519-1.129,4.346-3.519,4.676-6.37H19.07C18.147,14.017,17.159,15.094,16.127,16.127z"/>
<path fill="#59B4D9" d="M12.661,11.234h3.926c0.958-1.107,1.759-2.134,2.422-3.073c-0.799-1.452-2.032-2.633-3.531-3.358h-0.449
	c-0.817,0-1.47,0.653-1.47,1.47c0,0.122,0.02,0.265,0.061,0.388h-0.939c-1.286,0-2.307,1.021-2.307,2.286
	S11.395,11.234,12.661,11.234z"/>
</svg>

<?xml version="1.0" encoding="UTF-8" standalone="no"?>
<!-- Generator: Adobe Illustrator 21.1.0, SVG Export Plug-In . SVG Version: 6.00 Build 0)  -->

<svg
   xmlns:dc="http://purl.org/dc/elements/1.1/"
   xmlns:cc="http://creativecommons.org/ns#"
   xmlns:rdf="http://www.w3.org/1999/02/22-rdf-syntax-ns#"
   xmlns:svg="http://www.w3.org/2000/svg"
   xmlns="http://www.w3.org/2000/svg"
   xmlns:sodipodi="http://sodipodi.sourceforge.net/DTD/sodipodi-0.dtd"
   xmlns:inkscape="http://www.inkscape.org/namespaces/inkscape"
   version="1.1"
   id="Layer_1"
   x="0px"
   y="0px"
   width="24"
   height="24"
   viewBox="0 0 24 24"
   enable-background="new 0 0 24 24"
   xml:space="preserve"
   sodipodi:docname="CosmosDBcolor.svg"
   inkscape:version="0.92.4 (5da689c313, 2019-01-14)"><metadata
   id="metadata25"><rdf:RDF><cc:Work
       rdf:about=""><dc:format>image/svg+xml</dc:format><dc:type
         rdf:resource="http://purl.org/dc/dcmitype/StillImage" /></cc:Work></rdf:RDF></metadata><defs
   id="defs23" /><sodipodi:namedview
   pagecolor="#ffffff"
   bordercolor="#666666"
   borderopacity="1"
   objecttolerance="10"
   gridtolerance="10"
   guidetolerance="10"
   inkscape:pageopacity="0"
   inkscape:pageshadow="2"
   inkscape:window-width="713"
   inkscape:window-height="543"
   id="namedview21"
   showgrid="false"
   inkscape:zoom="9.8333333"
   inkscape:cx="12"
   inkscape:cy="12"
   inkscape:window-x="0"
   inkscape:window-y="0"
   inkscape:window-maximized="0"
   inkscape:current-layer="Layer_1" />
<path
   d="m 8.147,19.01 c 1.73,-1.219 3.716,-2.861 5.859,-5.004 2.201,-2.201 3.819,-4.167 5.008,-5.853 C 17.654,5.678 15.024,4 12,4 7.582,4 4,7.582 4,12 c 0,3.021 1.675,5.649 4.147,7.01 z"
   id="path2"
   inkscape:connector-curvature="0"
   style="fill:#b8d432" />
<path
   d="m 16.127,16.127 c -1.43,1.429 -2.888,2.725 -4.318,3.863 0.064,0.002 0.127,0.01 0.191,0.01 4.418,0 8,-3.582 8,-8 0,-0.065 -0.008,-0.127 -0.01,-0.191 -1.17,1.467 -2.477,2.932 -3.863,4.318 z"
   id="path4"
   inkscape:connector-curvature="0"
   style="fill:#b8d432" />
<path
   d="M 23.417,0.583 C 23.075,0.241 22.578,0.079 21.956,0.079 c -1.703,0 -4.348,1.225 -7.312,3.328 0.389,0.121 0.768,0.262 1.133,0.433 2.682,-1.821 4.904,-2.761 6.18,-2.761 0.247,0 0.579,0.037 0.754,0.211 0.947,0.947 -0.966,6.391 -7.997,13.422 C 9.325,20.101 4.262,22.92 2.046,22.92 1.798,22.92 1.467,22.883 1.292,22.709 0.666,22.083 1.303,19.481 3.834,15.76 3.667,15.4 3.528,15.026 3.409,14.642 c -2.872,4.047 -4.1,7.497 -2.824,8.774 0.342,0.342 0.839,0.504 1.461,0.504 2.819,0 8.21,-3.337 13.375,-8.501 6.304,-6.305 9.884,-12.947 7.996,-14.836 z"
   id="path6"
   inkscape:connector-curvature="0"
   style="fill:#0078d7" />
<path
   d="M 4,0 C 4,2.209 2.209,4 0,4 2.209,4 4,5.791 4,8 4,5.791 5.791,4 8,4 5.791,4 4,2.209 4,0 Z"
   id="path8"
   inkscape:connector-curvature="0"
   style="fill:#0078d7" />
<path
   d="m 21,18 c 0,1.657 -1.343,3 -3,3 1.657,0 3,1.343 3,3 0,-1.657 1.343,-3 3,-3 -1.657,0 -3,-1.343 -3,-3 z"
   id="path10"
   inkscape:connector-curvature="0"
   style="fill:#0078d7" />
<path
   d="M 8.639,13.194 H 8.312 C 8.353,13.031 8.373,12.867 8.373,12.684 8.373,11.479 7.393,10.5 6.189,10.5 H 4.146 C 4.053,10.986 4,11.487 4,12 c 0,2.164 0.863,4.123 2.258,5.563 h 2.381 c 1.205,0 2.184,-0.98 2.184,-2.184 0,-1.205 -0.98,-2.185 -2.184,-2.185 z"
   id="path12"
   inkscape:connector-curvature="0"
   style="fill:#59b4d9" />
<path
   d="m 14.001,14.011 c 0.002,-0.002 0.003,-0.003 0.005,-0.005 0.296,-0.296 0.572,-0.584 0.847,-0.871 -0.373,0.188 -0.675,0.496 -0.852,0.876 z"
   id="path14"
   inkscape:connector-curvature="0"
   style="fill:#59b4d9" />
<path
   d="m 16.127,16.127 c -0.936,0.936 -1.885,1.815 -2.831,2.632 0.336,0.333 0.797,0.54 1.304,0.54 h 0.665 c 2.519,-1.129 4.346,-3.519 4.676,-6.37 H 19.07 c -0.923,1.088 -1.911,2.165 -2.943,3.198 z"
   id="path16"
   inkscape:connector-curvature="0"
   style="fill:#59b4d9" />
<path
   d="m 12.661,11.234 h 3.926 C 17.545,10.127 18.346,9.1 19.009,8.161 18.21,6.709 16.977,5.528 15.478,4.803 h -0.449 c -0.817,0 -1.47,0.653 -1.47,1.47 0,0.122 0.02,0.265 0.061,0.388 h -0.939 c -1.286,0 -2.307,1.021 -2.307,2.286 0,1.265 1.021,2.287 2.287,2.287 z"
   id="path18"
   inkscape:connector-curvature="0"
   style="fill:#59b4d9" />
</svg>
